X: 28
T:Soldier's Joy. WM.028
M:4/4
L:1/8
Q:200
S:Wm.Mittell's MS,New Romney,Kent,1799
R:Hornpipe
O:England
A:Kent
Z:vmp.Chris Partington
K:D
FG|AFDF AFDF|A2d2d2cB|AFDF AFDF|G2E2E2FG|!
AFDF AFDF|A2d2d2fg|afdf gece|d2d2d2:|!
|:e2|fefg fagf|edcd efge|fede fagf|edcBA2A2|!
fefg fagf|edcd efge|afdf gece|d2d2d2:|]
